!!!OTL: 344. Feldzug der Franzosen und Baiern gegen Preussen 1806.
!!!ARE: Europa, Mitteleuropa, Deutschland, Bayern
!!!SCT: E0344
!!!TXL: @@DE
!!!YEM: Copyright 1995, estate of Helmut Schaffrath.
**kern	**text
*ICvox	*
*M6/8	*
*k[f#]	*
*G:	*
!LO:TX:a:t=Mäßig.	!
!LO:TX:a:t=Bavr. Soldatenlied.	!
{8d	Ach
=1	=1
8.d	Preu-
16g	-ße,
8g	was
8g	haſt
8f#	du
8e	ge-
=2	=2
8eL	-fan-
8dJ	.
8d	-gen
4d}	an!
{8cc	Schon
=3	=3
[8.b	wie-
16b]	-der
8b	auf's
8a	neu
8g	ei-
8a	-nen
=4	=4
4.g	Krieg?
4r}	.
{8d	Fran-
=5	=5
8.d	-ʒo-
16g	-ſen
8g	und
8g	Bayern
8f#	.
8e	die
=6	=6
8eL	greifen
8dJ	.
8d	dich
4d}	an,
{8cc	als
=7	=7
[8.b	wie
16b]	.
8b	ein
8a	feu-
8g	-ri-
8a	-ges
=8	=8
4.g	Licht.
4r}	.
{16dL	Sie
16gJ	.
=9	=9
8.g	wer-
16g	-den
8b	dich
4b	aus
8dd	dein
=10	=10
8.dd	Luſt-
16cc	-gar-
8cc	-ten
8cc	ver-
8cc}	-treib'n,
{8cc	und
=11	=11
8a	wer-
8a	-den
8dd	dich
8dd	ja-
8cc	-gen
8cc	da-
=12	=12
(4.cc	-von;
4b)}	.
{8d;	da-
=13	=13
8d	-rin-
8g	-nen
8g	ſoll
8g	kei-
8f#	-ner
8e	ver-
=14	=14
4.e	-blei-
4d}	-ben,
{8cc	kein
=15	=15
8.b	ein-
16b	-ʒig
8b	ge-
8a	-waff
8g	ne-
8a	-ter
=16	=16
4.g	Mann.
4r}	.
==	==
!!!AGN: historisches Lied, Krieg v. Franzosen und Bayern gegen Preussen 1806
!!!ONB: ESAC (Essen Associative Code) Database: ERK1
!!!AMT: compound duple
!!!AIN: vox
!!!EED: Helmut Schaffrath
!!!EEV: 1.0
!!!GTL: Historische Lieder
!!!URL-scan: https://rosdok.uni-rostock.de/mcrviewer/recordIdentifier/rosdok_ppn745177662/iview2/phys_0159.iview2?x=-511.385789653207&y=724.8937014187686&scale=0.48104763951911705&rotation=0&layout=singlePageLayout
!!!ENC: Anna Maria Matuszewska
!!!EEV: 2024/06/12
*-	*-
